X: 17
T: Missa Se la face ay pale / Gloria
N: Derived from Duf1005b-Missa_Se_la_face_ay_pale-Gloria.krn
C: Guillaume Du Fay
%%abc-version 2.0
%%abcx-abcm2ps-target-version 5.9.1 (29 Sep 2008)
%%abc-creator hum2abc beta
%%abcx-conversion-date 2019/02/16 20:31:46
%%abc-edited-by Jesse Rodin
%%abc-edited-by Jesse Rodin 8/28/2013
%%abcx-initial-encoding-date 2013/11/21/
%%humdrum-veritas 1496912893
%%humdrum-veritas-data 1932157884
%%linebreak <none>
%%barnumbers 0
L: 1/4
M: 3/1
Q: 1/2=120
%%staves [1 2 3 4]
V: 1 clef=treble
V: 2 clef=treble-8
V: 3 clef=treble-8
V: 4 clef=bass
K: C
[V:1] c6B2A4 | 
[V:2] c12 | 
[V:3] z12 | 
[V:4] z12 | 
[V:1] G4c6B2 | 
[V:2] c6B2A4 | 
[V:3] z12 | 
[V:4] z12 | 
[V:1] B4A2G2E4 | 
[V:2] G4c8 | 
[V:3] z12 | 
[V:4] z12 | 
[V:1] D4z2G4F2 | 
[V:2] B8B2A2 | 
[V:3] z12 | 
[V:4] z12 | 
[V:1] G4A6G2 | 
[V:2] B4c6B2 | 
[V:3] z12 | 
[V:4] z12 | 
[V:1] B8z4 | 
[V:2] G12 | 
[V:3] z12 | 
[V:4] z12 | 
[V:1] B6c2d4 | 
[V:2] z4g8 | 
[V:3] z12 | 
[V:4] z12 | 
[V:1] e4d2B2c4 | 
[V:2] g8a4 | 
[V:3] z12 | 
[V:4] z12 | 
[V:1] B2A4G2B2c2 | 
[V:2] g4f2g4e2 | 
[V:3] z12 | 
[V:4] z12 | 
[V:1] d4B2c2B2A2- | 
[V:2] f2g4c2d3c | 
[V:3] z12 | 
[V:4] z12 | 
[V:1] A2G3FE2D4 | 
[V:2] A2B2c4d2B2- | 
[V:3] z12 | 
[V:4] z12 | 
[V:1] G2B2A2G4^F2 | 
[V:2] B2G2c2B2A4 | 
[V:3] z12 | 
[V:4] z12 | 
[V:1] G12 | 
[V:2] G8z4 | 
[V:3] z12 | 
[V:4] z12 | 
[V:1] z4z4c4 | 
[V:2] c4d2e4f2- | 
[V:3] z12 | 
[V:4] z12 | 
[V:1] d2e4c4B2 | 
[V:2] f2g2c2e2d4 | 
[V:3] z12 | 
[V:4] z12 | 
[V:1] c4d6c2 | 
[V:2] c2A2B8 | 
[V:3] z12 | 
[V:4] z12 | 
[V:1] A2G2B4G4 | 
[V:2] c4G4c4 | 
[V:3] z12 | 
[V:4] z12 | 
[V:1] c6B2B2A2 | 
[V:2] e4d8 | 
[V:3] z12 | 
[V:4] z12 | 
[V:1] c12- | 
[V:2] c8e4 | 
[V:3] c12- | 
[V:4] z4z4C4 | 
[V:1] c4A8 | 
[V:2] e4f6e2 | 
[V:3] c12 | 
[V:4] A,4F,8 | 
[V:1] G4E2F2G4 | 
[V:2] e4g2f2e4 | 
[V:3] c12 | 
[V:4] C,8C,4 | 
[V:1] z4z4G4 | 
[V:2] d12 | 
[V:3] B12- | 
[V:4] G,12 | 
[V:1] D2G4F2D2E2 | 
[V:2] z4z4B4 | 
[V:3] B12 | 
[V:4] G,4E,2F,2G,4 | 
[V:1] F8c4 | 
[V:2] c8c4 | 
[V:3] A12 | 
[V:4] F,12 | 
[V:1] c4A4F4 | 
[V:2] A6G2A4 | 
[V:3] c6d6 | 
[V:4] z4z4F,4 | 
[V:1] G12 | 
[V:2] G4c2c4B2 | 
[V:3] e12 | 
[V:4] C,12 | 
[V:1] z12 | 
[V:2] A2d4c2A2B2 | 
[V:3] f12 | 
[V:4] D,12 | 
[V:1] G4G4A4 | 
[V:2] c12 | 
[V:3] e12 | 
[V:4] C,12 | 
[V:1] B8A4- | 
[V:2] z12 | 
[V:3] d12- | 
[V:4] G,8D,4- | 
[V:1] A2d3cc2B3A | 
[V:2] z4z4d4 | 
[V:3] d12 | 
[V:4] D,4G,8 | 
[V:1] c12- | 
[V:2] e6f2g4 | 
[V:3] c12 | 
[V:4] C,12- | 
[V:1] c12 | 
[V:2] g4e4c4 | 
[V:3] G6A6- | 
[V:4] C,8F,4- | 
[V:1] z12 | 
[V:2] c3BA2G4F2 | 
[V:3] A6B6 | 
[V:4] F,2F,4E,2D,4 | 
[V:1] E8E4 | 
[V:2] G4z4g4 | 
[V:3] c12- | 
[V:4] C,12 | 
[V:1] E6F2G4 | 
[V:2] g8e4 | 
[V:3] c12 | 
[V:4] z12 | 
[V:1] A4G2G4^F2 | 
[V:2] c2f2e2d4c2 | 
[V:3] z12 | 
[V:4] F,4G,2_B,2A,4 | 
[V:1] G4B2c2d4 | 
[V:2] d4d4d4 | 
[V:3] g12- | 
[V:4] G,12 | 
[V:1] c4e2e3dc2 | 
[V:2] e12 | 
[V:3] g12 | 
[V:4] C8C4 | 
[V:1] B4z4B4 | 
[V:2] d12 | 
[V:3] g12 | 
[V:4] G,12 | 
[V:1] c6B2A2G2 | 
[V:2] z12 | 
[V:3] c12- | 
[V:4] z12 | 
[V:1] A4G4E4 | 
[V:2] z12 | 
[V:3] c12 | 
[V:4] z12 | 
[V:1] D8D4 | 
[V:2] z12 | 
[V:3] B12 | 
[V:4] z12 | 
[V:1] z2E4D2F3E | 
[V:2] z12 | 
[V:3] c6d6 | 
[V:4] z12 | 
[V:1] C4G2A3Bc2 | 
[V:2] z12 | 
[V:3] e6f6 | 
[V:4] z12 | 
[V:1] B2d3cA2B3A | 
[V:2] z12 | 
[V:3] d12 | 
[V:4] z12 | 
[V:1] c8z4 | 
[V:2] g8g4 | 
[V:3] c12- | 
[V:4] z4z4C,4 | 
[V:1] G4A2c4B2 | 
[V:2] e6g2f2ed | 
[V:3] c12 | 
[V:4] C,8F,3G, | 
[V:1] A2G4F2D2E2 | 
[V:2] c2d2e2c2BB2A | 
[V:3] z12 | 
[V:4] A,2B,2C2F,2G,4 | 
[V:1] F6E2C4 | 
[V:2] c4z4f4 | 
[V:3] a12 | 
[V:4] F,12 | 
[V:1] F4D2C2F3E | 
[V:2] d2c2f3ec4 | 
[V:3] a6a6- | 
[V:4] F,12 | 
[V:1] C4F2E2D3C | 
[V:2] A12 | 
[V:3] a6a6 | 
[V:4] F,4D,2C,2F,4 | 
[V:1] E8E4 | 
[V:2] c12 | 
[V:3] g12- | 
[V:4] C,12 | 
[V:1] D8d4 | 
[V:2] G12 | 
[V:3] g12 | 
[V:4] z12 | 
[V:1] c2d2e6d2 | 
[V:2] e2f2g4a4 | 
[V:3] z6c6 | 
[V:4] C8A,4 | 
[V:1] d2c2B6A2 | 
[V:2] f4g8 | 
[V:3] d6e6 | 
[V:4] _B,4G,8 | 
[V:1] A12 | 
[V:2] c12 | 
[V:3] f12 | 
[V:4] F,12 | 
[V:1] B4A2G4F2 | 
[V:2] B12 | 
[V:3] d12 | 
[V:4] G,12 | 
[V:1] E8c4 | 
[V:2] z12 | 
[V:3] c12 | 
[V:4] A,12 | 
[V:1] c4A6G2 | 
[V:2] c12 | 
[V:3] z12 | 
[V:4] F,12 | 
[V:1] B12 | 
[V:2] G12 | 
[V:3] d12 | 
[V:4] z12 | 
[V:1] z12 | 
[V:2] G8A4 | 
[V:3] c12 | 
[V:4] C,8C4 | 
[V:1] z12 | 
[V:2] B2c2d6c2 | 
[V:3] G12 | 
[V:4] D4B,8 | 
[V:1] z12 | 
[V:2] e8d4 | 
[V:3] g6g6 | 
[V:4] C8G,4- | 
[V:1] z12 | 
[V:2] d4e4c3B | 
[V:3] g6g6 | 
[V:4] G,4C,8 | 
[V:1] E12 | 
[V:2] A3GG4A4 | 
[V:3] c12 | 
[V:4] z4C,8 | 
[V:1] D6D2F2G2 | 
[V:2] B8z4 | 
[V:3] z6d6 | 
[V:4] B,,8B,,4 | 
[V:1] E4G4c3B | 
[V:2] G6e6 | 
[V:3] c12 | 
[V:4] C,12 | 
[V:1] G4d3c_BAG2 | 
[V:2] d12- | 
[V:3] _B12 | 
[V:4] G,12 | 
[V:1] F2A3GG2^F3E | 
[V:2] d12 | 
[V:3] A12 | 
[V:4] D,12 | 
[V:1] G12 | 
[V:2] d8z4 | 
[V:3] G12 | 
[V:4] z4z4G,4 | 
[V:1] z12 | 
[V:2] d4e2f2g4 | 
[V:3] z12 | 
[V:4] G,6A,2B,4 | 
[V:1] z12 | 
[V:2] a4g2g4^f2 | 
[V:3] z12 | 
[V:4] C4B,2G,2A,4 | 
[V:1] z12 | 
[V:2] g4z2G2A2B2 | 
[V:3] z12 | 
[V:4] G,4B,4C2D2- | 
[V:1] z12 | 
[V:2] G6E2^F4 | 
[V:3] z12 | 
[V:4] D2G,2B,2C2A,4 | 
[V:1] z12 | 
[V:2] G4z4B4 | 
[V:3] z12 | 
[V:4] G,12 | 
[V:1] z12 | 
[V:2] c2d4B2A4 | 
[V:3] z12 | 
[V:4] z4G,4F,4 | 
[V:1] z12 | 
[V:2] G2z2e4f2g2- | 
[V:3] z12 | 
[V:4] G,4C,8 | 
[V:1] z12 | 
[V:2] gfe2d4c2A2- | 
[V:3] z12 | 
[V:4] C,4B,,4C,4 | 
[V:1] z12 | 
[V:2] A2G2c2d2e4 | 
[V:3] z12 | 
[V:4] D,2E,4F,2G,4- | 
[V:1] z12 | 
[V:2] d2f2e2g2f2d2- | 
[V:3] z12 | 
[V:4] G,2A,2G,2E,2F,4 | 
[V:1] z12 | 
[V:2] d2e3cc4B2 | 
[V:3] z12 | 
[V:4] G,4C,2E,2D,4 | 
[V:1] z12 | 
[V:2] c4G8 | 
[V:3] c12- | 
[V:4] C,12 | 
[V:1] E6F2G4 | 
[V:2] g6f2e4 | 
[V:3] c12 | 
[V:4] z12 | 
[V:1] G8G4 | 
[V:2] d12 | 
[V:3] B12 | 
[V:4] G,8G,4 | 
[V:1] A2G4c4B2 [I:setbarnb 86]| 
[V:2] z12 | 
[V:3] c12- | 
[V:4] C,8F,4- | 
[V:1] A3GA2E2^F3E | 
[V:2] z12 | 
[V:3] c12 | 
[V:4] F,2E,2F,2G,2A,4 | 
[V:1] G12 | 
[V:2] z12 | 
[V:3] d12 | 
[V:4] G,6A,2B,4 | 
[V:1] z4c6B2 | 
[V:2] g12 | 
[V:3] e12 | 
[V:4] C12 | 
[V:1] A2G2G8 | 
[V:2] e12 | 
[V:3] c12 | 
[V:4] z12 | 
[V:1] G4c8 | 
[V:2] e4f2e2c4 | 
[V:3] z12 | 
[V:4] z4A,8 | 
[V:1] B4c4d4 | 
[V:2] d4e4d4 | 
[V:3] g6g6 | 
[V:4] G,4C4G,4- | 
[V:1] e4A2B2c3d | 
[V:2] g3fe2d2c3B | 
[V:3] e6f6 | 
[V:4] G,2C4B,2A,4 | 
[V:1] B8G4 | 
[V:2] d8B4 | 
[V:3] g12 | 
[V:4] G,12 | 
[V:1] G12 | 
[V:2] c12 | 
[V:3] z12 | 
[V:4] C,12 | 
[V:1] z12 | 
[V:2] A8A4 | 
[V:3] c12 | 
[V:4] F,8A,4 | 
[V:1] d6c2B4 | 
[V:2] G4B8 | 
[V:3] d6e6 | 
[V:4] _B,4G,8 | 
[V:1] A4c2c4B2 | 
[V:2] c4z4A4- | 
[V:3] f6e6 | 
[V:4] F,4A,4C4 | 
[V:1] A6G2G4 | 
[V:2] A2A4B4c2 | 
[V:3] c6G6 | 
[V:4] z2F,4E,2G,2C,2- | 
[V:1] z12 | 
[V:2] c3BA2G4F2 | 
[V:3] A6B6 | 
[V:4] C,2F,4E,2D,4 | 
[V:1] z4G2A2G2c2 | 
[V:2] G2A2G2c2B2G2- | 
[V:3] c6e6- | 
[V:4] C,12- | 
[V:1] B2G4c2d2e2- | 
[V:2] G2c2d2e4c2 | 
[V:3] e6c6 | 
[V:4] C,12 | 
[V:1] e2c2c3BAGG2 | 
[V:2] c3BAGG2c4 | 
[V:3] g6e6 | 
[V:4] C,12 | 
[V:1] z2G2E2C2G4 | 
[V:2] e2c2g4e3c | 
[V:3] c6z6 | 
[V:4] C,12- | 
[V:1] E3CC4c4 | 
[V:2] c2z2G2Ac2BA2 | 
[V:3] g6e6 | 
[V:4] C,12 | 
[V:1] B4z4z4 | 
[V:2] G4c2z2d3c | 
[V:3] g6f6 | 
[V:4] z12 | 
[V:1] z12 | 
[V:2] B2f3edcB3A | 
[V:3] d12 | 
[V:4] z12 | 
[V:1] c6B2G4 | 
[V:2] c4e8 | 
[V:3] c12 | 
[V:4] C,12 | 
[V:1] A8B4 | 
[V:2] c4z4g4 | 
[V:3] z6d6 | 
[V:4] F,8G,4 | 
[V:1] c8A2F2 | 
[V:2] e4f3ec4 | 
[V:3] c6A6- | 
[V:4] A,4F,8 | 
[V:1] F6E2E2D2 | 
[V:2] z12 | 
[V:3] A6B6 | 
[V:4] F,4G,8 | 
[V:1] F8F4 | 
[V:2] A8c4- | 
[V:3] c6A6 | 
[V:4] F,8F,4 | 
[V:1] E2G4A4B2 | 
[V:2] c2d2e4a2g2 | 
[V:3] G6c6- | 
[V:4] C,8F,2G,2 | 
[V:1] c4A4G2c2 | 
[V:2] e4c4g4- | 
[V:3] c6e6 | 
[V:4] A,8C4 | 
[V:1] B2d2G2A2B4 | 
[V:2] g4z4g4 | 
[V:3] d12 | 
[V:4] G,8G,4 | 
[V:1] c6B2A4 | 
[V:2] e8f4 | 
[V:3] c12- | 
[V:4] C,8F,4 | 
[V:1] G4A4F4 | 
[V:2] e4f2e2c4 | 
[V:3] c12- | 
[V:4] C,4F,8 | 
[V:1] C2F2G2E4D2 | 
[V:2] A4G8 | 
[V:3] c12- | 
[V:4] F,4C,8 | 
[V:1] F12 ||  
[V:2] F4A2B2c4 ||  
[V:3] c12 ||  
[V:4] z4F,8 ||  
[V:1]  [K:C] [K:clef=treble][M:4/2]c8 | 
[V:2]  [K:C] [K:clef=treble-8][M:4/2]f8- | 
[V:3]  [K:C] [K:clef=treble-8][M:4/2]z8 | 
[V:4]  [K:C] [K:clef=bass][M:4/2]z8 | 
[V:1] c8 | 
[V:2] f8 | 
[V:3] z8 | 
[V:4] z8 | 
[V:1] A4c4- | 
[V:2] f8 | 
[V:3] z8 | 
[V:4] z8 | 
[V:1] c4B4 | 
[V:2] c4d4- | 
[V:3] z8 | 
[V:4] z8 | 
[V:1] A8 | 
[V:2] d4f4 | 
[V:3] z8 | 
[V:4] z8 | 
[V:1] G8 | 
[V:2] e8 | 
[V:3] z8 | 
[V:4] z8 | 
[V:1] F6D2 | 
[V:2] z4f4 | 
[V:3] z8 | 
[V:4] z8 | 
[V:1] E4F4 | 
[V:2] g4a4- | 
[V:3] z8 | 
[V:4] z8 | 
[V:1] D8 | 
[V:2] a4f4 | 
[V:3] z8 | 
[V:4] z8 | 
[V:1] C8- | 
[V:2] e4g4- | 
[V:3] z8 | 
[V:4] z8 | 
[V:1] C8 | 
[V:2] g2f2e2c2 | 
[V:3] z8 | 
[V:4] z8 | 
[V:1] z4B,4 | 
[V:2] d8 | 
[V:3] z8 | 
[V:4] z8 | 
[V:1] C4E4 | 
[V:2] c8 | 
[V:3] z8 | 
[V:4] z8 | 
[V:1] D6C2 | 
[V:2] z4B4 | 
[V:3] z8 | 
[V:4] z8 | 
[V:1] C2z2c4 | 
[V:2] c4e4 | 
[V:3] z8 | 
[V:4] z8 | 
[V:1] B2B4A2 | 
[V:2] d8 | 
[V:3] z8 | 
[V:4] z8 | 
[V:1] A4G2F2 | 
[V:2] c6BA | 
[V:3] z8 | 
[V:4] z8 | 
[V:1] E6D2 | 
[V:2] G8 | 
[V:3] z8 | 
[V:4] z8 | 
[V:1] F8 | 
[V:2] F8 | 
[V:3] c8- | 
[V:4] F,8- | 
[V:1] z8 | 
[V:2] A8 | 
[V:3] c8 | 
[V:4] F,8 | 
[V:1] E8 | 
[V:2] G8 | 
[V:3] c8 | 
[V:4] C,8 | 
[V:1] D4G4- | 
[V:2] z4d4- | 
[V:3] B8- | 
[V:4] G,8 | 
[V:1] G4G4 | 
[V:2] d2e2d2c2 | 
[V:3] B8 | 
[V:4] z4G,4 | 
[V:1] A2B2c4- | 
[V:2] e8 | 
[V:3] A8 | 
[V:4] C8 | 
[V:1] c4B4 | 
[V:2] z8 | 
[V:3] c4d4 | 
[V:4] A,4B,4 | 
[V:1] G4c4- | 
[V:2] z8 | 
[V:3] e8 | 
[V:4] C8 | 
[V:1] c4d4 | 
[V:2] z8 | 
[V:3] f8 | 
[V:4] F,8 | 
[V:1] e4c4 | 
[V:2] g8- | 
[V:3] e8 | 
[V:4] C8 | 
[V:1] d4B2d2- | 
[V:2] g8 | 
[V:3] d8- | 
[V:4] G,8 | 
[V:1] d2c2B2A2 | 
[V:2] f4g4 | 
[V:3] d8 | 
[V:4] z4G,4 | 
[V:1] c8 | 
[V:2] e8 | 
[V:3] c8 | 
[V:4] C,8 | 
[V:1] B4A2A2- | 
[V:2] e4c4 | 
[V:3] G4A4- | 
[V:4] E,4F,4 | 
[V:1] A2G2F4 | 
[V:2] d8 | 
[V:3] A4B4 | 
[V:4] D,8 | 
[V:1] E8 | 
[V:2] G8- | 
[V:3] c8- | 
[V:4] C,8- | 
[V:1] z8 | 
[V:2] G8 | 
[V:3] c8 | 
[V:4] C,8 | 
[V:1] G8 | 
[V:2] c8 | 
[V:3] z8 | 
[V:4] z8 | 
[V:1] c8 | 
[V:2] c6d2 | 
[V:3] g8- | 
[V:4] z8 | 
[V:1] c8 | 
[V:2] e8 | 
[V:3] g8 | 
[V:4] z8 | 
[V:1] B6A2 | 
[V:2] d8 | 
[V:3] g8 | 
[V:4] G,8 | 
[V:1] c6A2 | 
[V:2] z8 | 
[V:3] c8- | 
[V:4] A,4F,4- | 
[V:1] A6GF | 
[V:2] z8 | 
[V:3] c8 | 
[V:4] F,4A,4 | 
[V:1] E6D2 | 
[V:2] z8 | 
[V:3] B8 | 
[V:4] G,8 | 
[V:1] F2z2A2B2 | 
[V:2] z8 | 
[V:3] c4d4 | 
[V:4] F,8 | 
[V:1] c4A2d2- | 
[V:2] z8 | 
[V:3] e4f4 | 
[V:4] C,4D,4- | 
[V:1] d2c2B2A2 | 
[V:2] z8 | 
[V:3] d8 | 
[V:4] D,4D,4 | 
[V:1] A8 | 
[V:2] f6g2 | 
[V:3] c8- | 
[V:4] F,8- | 
[V:1] F6ED | 
[V:2] a4a4- | 
[V:3] c8 | 
[V:4] F,8 | 
[V:1] C8 | 
[V:2] a2g2f2e2 | 
[V:3] z8 | 
[V:4] A,8- | 
[V:1] z8 | 
[V:2] e8 | 
[V:3] a8 | 
[V:4] A,8 | 
[V:1] z8 | 
[V:2] f4d2c2 | 
[V:3] a4a4- | 
[V:4] F,8- | 
[V:1] z8 | 
[V:2] c4f4 | 
[V:3] a4a4 | 
[V:4] F,8 | 
[V:1] c8 | 
[V:2] e8 | 
[V:3] g8- | 
[V:4] C8 | 
[V:1] B8 | 
[V:2] d8 | 
[V:3] g8 | 
[V:4] G,8 | 
[V:1] A4F2E2 | 
[V:2] c6A2 | 
[V:3] z4c4 | 
[V:4] A,8 | 
[V:1] G2A2B4 | 
[V:2] B6A2 | 
[V:3] d4e4 | 
[V:4] G,8 | 
[V:1] A4c4 | 
[V:2] c4A2F2 | 
[V:3] f8 | 
[V:4] F,8 | 
[V:1] B4A2GF | 
[V:2] G4F2G2 | 
[V:3] d8 | 
[V:4] z8 | 
[V:1] E2z2A2B2 | 
[V:2] A4F4- | 
[V:3] c8 | 
[V:4] z8 | 
[V:1] c6A2 | 
[V:2] F4A4 | 
[V:3] z8 | 
[V:4] z8 | 
[V:1] B2c2d4 | 
[V:2] G8 | 
[V:3] d8 | 
[V:4] z8 | 
[V:1] e2e3dc2 | 
[V:2] g4e4 | 
[V:3] c8 | 
[V:4] z8 | 
[V:1] B6A2 | 
[V:2] d8 | 
[V:3] G8 | 
[V:4] z8 | 
[V:1] c8 | 
[V:2] c8 | 
[V:3] g4g4 | 
[V:4] z8 | 
[V:1] z8 | 
[V:2] e6f2 | 
[V:3] g4g4 | 
[V:4] C,8- | 
[V:1] c8 | 
[V:2] g8 | 
[V:3] c8 | 
[V:4] C,8 | 
[V:1] B6A2 | 
[V:2] g8 | 
[V:3] z4d4 | 
[V:4] G,8 | 
[V:1] c2B2A4 | 
[V:2] z8 | 
[V:3] c8 | 
[V:4] A,4F,4 | 
[V:1] G4D2G2 | 
[V:2] z8 | 
[V:3] _B8 | 
[V:4] G,8 | 
[V:1] A2^F4E2 | 
[V:2] z8 | 
[V:3] A8 | 
[V:4] C8 | 
[V:1] G8- | 
[V:2] d4B4 | 
[V:3] G8 | 
[V:4] z4D4- | 
[V:1] G8- | 
[V:2] G8 | 
[V:3] z8 | 
[V:4] D4B,4 | 
[V:1] G8 | 
[V:2] e4c2e2 | 
[V:3] z8 | 
[V:4] C8 | 
[V:1] z8 | 
[V:2] d2g4f2 | 
[V:3] z8 | 
[V:4] G,4A,4 | 
[V:1] z8 | 
[V:2] g2e2d4 | 
[V:3] z8 | 
[V:4] G,4F,2G,2- | 
[V:1] z8 | 
[V:2] B2c2A2G2- | 
[V:3] z8 | 
[V:4] G,2C,4B,,2 | 
[V:1] z8 | 
[V:2] G2c2d2f2 | 
[V:3] z8 | 
[V:4] C,2E,2D,4 | 
[V:1] z8 | 
[V:2] e2g4c2 | 
[V:3] z8 | 
[V:4] C,4E,2F,2- | 
[V:1] z8 | 
[V:2] d2e2f3e | 
[V:3] z8 | 
[V:4] F,2G,2A,2F,2- | 
[V:1] z8 | 
[V:2] dcc4B2 | 
[V:3] z8 | 
[V:4] F,2E,2D,4 | 
[V:1] z8 | 
[V:2] c4A2A2- | 
[V:3] z8 | 
[V:4] C,4F,4- | 
[V:1] z8 | 
[V:2] AGF2E4 | 
[V:3] z8 | 
[V:4] F,4G,4 | 
[V:1] z8 | 
[V:2] F4z4 | 
[V:3] c8- | 
[V:4] A,4F,4- | 
[V:1] z8 | 
[V:2] A4G2E2 | 
[V:3] c8 | 
[V:4] F,4C,4 | 
[V:1] z8 | 
[V:2] F6E2 | 
[V:3] B8 | 
[V:4] D,8 | 
[V:1] E8 | 
[V:2] G8 | 
[V:3] c8- | 
[V:4] C,8 | 
[V:1] C4c4 | 
[V:2] A8 | 
[V:3] c8 | 
[V:4] F,8- | 
[V:1] B2A4G2 | 
[V:2] A6B2 | 
[V:3] d8 | 
[V:4] F,8 | 
[V:1] G4c4- | 
[V:2] c8 | 
[V:3] e8 | 
[V:4] C,8 | 
[V:1] c2d2e4 | 
[V:2] e2f2g4 | 
[V:3] c8 | 
[V:4] z8 | 
[V:1] c8 | 
[V:2] a2g2e4- | 
[V:3] z8 | 
[V:4] C8- | 
[V:1] c4B4 | 
[V:2] e4d4 | 
[V:3] g4g4 | 
[V:4] C4G,4 | 
[V:1] A2c4d2 | 
[V:2] c6B2 | 
[V:3] e4f4 | 
[V:4] A,8 | 
[V:1] B8 | 
[V:2] d8 | 
[V:3] g8 | 
[V:4] G,8 | 
[V:1] G4G4 | 
[V:2] e8 | 
[V:3] z8 | 
[V:4] C8 | 
[V:1] c6B2 | 
[V:2] e4f4 | 
[V:3] c8 | 
[V:4] z4A,4 | 
[V:1] B8 | 
[V:2] g8 | 
[V:3] d4e4 | 
[V:4] G,8 | 
[V:1] A4G4- | 
[V:2] c8 | 
[V:3] f4e4 | 
[V:4] F,4C,4- | 
[V:1] G2c4B2 | 
[V:2] z8 | 
[V:3] c4G4 | 
[V:4] C,4C,4 | 
[V:1] A4G2F2 | 
[V:2] z8 | 
[V:3] A4B4 | 
[V:4] F,4G,4 | 
[V:1] E4A4 | 
[V:2] z8 | 
[V:3] c4e4- | 
[V:4] A,8 | 
[V:1] G2c4A2 | 
[V:2] c2e4c2 | 
[V:3] e4c4 | 
[V:4] C4A,4 | 
[V:1] B3GG4 | 
[V:2] d4c4 | 
[V:3] g4e4 | 
[V:4] G,4C,4- | 
[V:1] z4G2A2 | 
[V:2] g4e4 | 
[V:3] c4z4 | 
[V:4] C,8 | 
[V:1] G2c4d2 | 
[V:2] c8 | 
[V:3] g4e4 | 
[V:4] C,8 | 
[V:1] e4c2d2- | 
[V:2] c4a4 | 
[V:3] g4f4 | 
[V:4] C,4z4 | 
[V:1] d2c2A2B2 | 
[V:2] f2f4e2 | 
[V:3] d8 | 
[V:4] z8 | 
[V:1] c8 | 
[V:2] g4e4 | 
[V:3] c8 | 
[V:4] C,8 | 
[V:1] z8 | 
[V:2] d4f2g2 | 
[V:3] z4d4 | 
[V:4] B,,8 | 
[V:1] c8 | 
[V:2] e8 | 
[V:3] c4A4- | 
[V:4] C,8 | 
[V:1] A2G2F4 | 
[V:2] d8 | 
[V:3] A4B4 | 
[V:4] D,8 | 
[V:1] E6F2 | 
[V:2] G4c4- | 
[V:3] c4A4 | 
[V:4] C,8 | 
[V:1] G6A2 | 
[V:2] c2d2e4- | 
[V:3] G4c4- | 
[V:4] C,8- | 
[V:1] G2c4c2 | 
[V:2] e2f2g4- | 
[V:3] c4e4 | 
[V:4] C,8 | 
[V:1] d2B4A2 | 
[V:2] g4g4 | 
[V:3] d8 | 
[V:4] G,8 | 
[V:1] c6B2 | 
[V:2] e4f4- | 
[V:3] c8- | 
[V:4] A,4F,4- | 
[V:1] A4G4 | 
[V:2] f4e4 | 
[V:3] c8- | 
[V:4] F,4C,4 | 
[V:1] A2A4F2 | 
[V:2] A8 & f8 | 
[V:3] c8- | 
[V:4] F,8 | 
[V:1] E8 ||  
[V:2] G8 & g8 ||  
[V:3] c8 ||  
[V:4] C,8 ||  
[V:1]  [K:C] [K:clef=treble][M:3/1]z12 | 
[V:2]  [K:C] [K:clef=treble-8][M:3/1]c6d2e4 | 
[V:3]  [K:C] [K:clef=treble-8][M:3/1]z12 | 
[V:4]  [K:C] [K:clef=bass][M:3/1]C8C4 | 
[V:1] z12 | 
[V:2] f4g6f2 | 
[V:3] z12 | 
[V:4] A,4G,2_B,4A,2 | 
[V:1] z12 | 
[V:2] d2c2e6d2 | 
[V:3] z12 | 
[V:4] F,4G,8 | 
[V:1] z12 | 
[V:2] f4e2d4c2 | 
[V:3] z12 | 
[V:4] F,12 | 
[V:1] z12 | 
[V:2] c4A4G4 | 
[V:3] z12 | 
[V:4] E,4F,4C,4- | 
[V:1] z12 | 
[V:2] c6B2B2A2 | 
[V:3] z12 | 
[V:4] C,4D,8 | 
[V:1] c6B2A2G2 | 
[V:2] c6d2e4- | 
[V:3] c8c4 | 
[V:4] C,12 | 
[V:1] G8A4- | 
[V:2] e2d4c2e4 | 
[V:3] B8A4 | 
[V:4] z12 | 
[V:1] A2F2G4A4 | 
[V:2] z12 | 
[V:3] c2d2e4f4 | 
[V:4] z12 | 
[V:1] G4F6D2 | 
[V:2] z12 | 
[V:3] e4d8 | 
[V:4] z12 | 
[V:1] E6C2D4 | 
[V:2] z12 | 
[V:3] c4G2A4B2 | 
[V:4] z12 | 
[V:1] E4C8 | 
[V:2] z12 | 
[V:3] c8z4 | 
[V:4] z12 | 
[V:1] z4C6D2 | 
[V:2] z12 | 
[V:3] g8g4 | 
[V:4] C,12- | 
[V:1] E2F2G6F2 | 
[V:2] z12 | 
[V:3] c8B4 | 
[V:4] C,8G,4 | 
[V:1] A4G2c2B3A | 
[V:2] z12 | 
[V:3] c2d2e2f2d4 | 
[V:4] F,4C,4G,4 | 
[V:1] c12 | 
[V:2] g8a4 | 
[V:3] c8z4 | 
[V:4] C,8F,4- | 
[V:1] z12 | 
[V:2] f8f4 | 
[V:3] a4a2a4a2 | 
[V:4] F,12 | 
[V:1] c8c4 | 
[V:2] e8c4 | 
[V:3] g8z2c2 | 
[V:4] C8A,4 | 
[V:1] B4A2A3GF2 | 
[V:2] z4A8 | 
[V:3] d2e2f4d4 | 
[V:4] G,4F,8 | 
[V:1] E4F6E2 | 
[V:2] G4A8 | 
[V:3] c4z4d4 | 
[V:4] C,4F,8 | 
[V:1] E12 | 
[V:2] G4c6d2 | 
[V:3] c4G4g2g2 | 
[V:4] C,12- | 
[V:1] z4c4A2B2 | 
[V:2] e8f4- | 
[V:3] g2g2c4z2d2 | 
[V:4] C,8F,4 | 
[V:1] A4G2G4^F2 | 
[V:2] f4d8 | 
[V:3] c4_B4A4 | 
[V:4] F,4G,4D,4 | 
[V:1] G12 | 
[V:2] d8g4 | 
[V:3] G4z4z4 | 
[V:4] z4G,8 | 
[V:1] z12 | 
[V:2] e2c2d6c2 | 
[V:3] z12 | 
[V:4] A,4B,8 | 
[V:1] z4z4c4 | 
[V:2] c2z2g4a2a2- | 
[V:3] z12 | 
[V:4] C8F,4 | 
[V:1] c4B8 | 
[V:2] aef2g2d2e3d | 
[V:3] z12 | 
[V:4] A,4G,8 | 
[V:1] A8G4 | 
[V:2] f8d4 | 
[V:3] c8B4 | 
[V:4] F,8G,4 | 
[V:1] E4F8 | 
[V:2] c4A8 | 
[V:3] c8d4 | 
[V:4] A,4F,8 | 
[V:1] G4A6B2 | 
[V:2] z4f6g2 | 
[V:3] e4c4z4 | 
[V:4] E,4F,6E,2 | 
[V:1] c4c6B2 | 
[V:2] e4g4c4- | 
[V:3] g2g2e2f2g4 | 
[V:4] C,12- | 
[V:1] G4c4B4 | 
[V:2] c2G4A2B4 | 
[V:3] z4c4d2e2 | 
[V:4] C,8G,4 | 
[V:1] A2G4E2F4 | 
[V:2] c2B2G4F4 | 
[V:3] f2e2c2G2A2B2 | 
[V:4] F,2G,2E,4D,4 | 
[V:1] E2z2C2G2E2C2 | 
[V:2] G8z2g2 | 
[V:3] c2e4c2g2e2 | 
[V:4] C,8C,4 | 
[V:1] z2G2E2G2z2c2 | 
[V:2] e2c2z2g2e3d | 
[V:3] c2z2g2e2g2f2 | 
[V:4] C,12 | 
[V:1] B2A2c4A4 | 
[V:2] f4g2e2c2f2- | 
[V:3] d4c4z2d2 | 
[V:4] z4z4F,4- | 
[V:1] z4F4E3F | 
[V:2] fec2d4G2c2- | 
[V:3] c2A4B2c2A2 | 
[V:4] F,4D,4C,4- | 
[V:1] G4c4A2A2- | 
[V:2] cBAGG4F4 | 
[V:3] G2c4e2d4 | 
[V:4] C,4C,4D,4 | 
[V:1] A2F2G2E4D2 | 
[V:2] A4G8 | 
[V:3] c12- | 
[V:4] F,4C,8 | 
[V:1] F12 |]  
[V:2] A6F2F4 |]  
[V:3] c12 |]  
[V:4] F,12 |]  



